img/guarantee/icon7.svg

<svg width="57" height="57" viewBox="0 0 57 57" fill="none" xmlns="http://www.w3.org/2000/svg">
<circle cx="28.5" cy="28.5" r="28" stroke="#009CA1"/>
<path fill-rule="evenodd" clip-rule="evenodd" d="M24.1292 13.827L23.479 14.0539C21.9386 14.5915 20.1513 15.6277 18.9468 16.6814C18.6286 16.9598 18.3496 17.1875 18.3266 17.1875C18.3037 17.1875 17.7617 16.8804 17.1221 16.505C16.1598 15.9402 15.944 15.839 15.8709 15.9183C15.8094 15.9849 12.3501 22.0158 12.0002 22.6665C11.9889 22.6875 12.5027 23.0075 13.142 23.3777C13.7813 23.7478 14.319 24.0879 14.337 24.1334C14.3549 24.1789 14.3024 24.611 14.2201 25.0936C13.941 26.731 13.9573 28.5778 14.2651 30.1812C14.3267 30.5019 14.3606 30.8059 14.3406 30.8568C14.3206 30.9077 13.7816 31.253 13.1429 31.624C12.5042 31.995 11.9905 32.3151 12.0013 32.3352C12.3511 32.9867 15.8087 39.0154 15.871 39.0824C15.9455 39.1627 16.156 39.0642 17.1245 38.4957C17.7648 38.12 18.3065 37.8125 18.3284 37.8125C18.3504 37.8125 18.6286 38.0402 18.9468 38.3186C20.1513 39.3723 21.9386 40.4085 23.479 40.9461L24.1292 41.173V44H32.0013V41.173L32.6515 40.9473C34.1237 40.4362 35.9386 39.389 37.1238 38.3665C37.4091 38.1205 37.6817 37.89 37.7296 37.8543C37.7889 37.8102 38.1938 38.0114 38.9941 38.4824C39.7919 38.9519 40.1944 39.152 40.2429 39.103C40.2822 39.0632 41.1783 37.5165 42.234 35.6659C44.1182 32.3635 44.1509 32.2994 43.9992 32.2082C43.9143 32.1571 43.3703 31.8343 42.7904 31.491C42.1901 31.1355 41.7448 30.8277 41.7562 30.7762C41.9975 29.6839 42.0748 28.9213 42.0809 27.5711C42.0866 26.336 42.0618 25.9619 41.9195 25.1239C41.7714 24.2522 41.764 24.1253 41.8567 24.057C41.9145 24.0144 42.4549 23.6935 43.0574 23.3438C43.66 22.9942 44.1432 22.6902 44.1314 22.6682C43.7512 21.9655 40.3216 15.9854 40.2611 15.9198C40.1899 15.8425 39.9638 15.9486 39.0095 16.5065C38.3689 16.881 37.8262 17.1875 37.8035 17.1875C37.7808 17.1875 37.5019 16.9598 37.1837 16.6814C35.9792 15.6277 34.1919 14.5915 32.6515 14.0539L32.0013 13.827V11H24.1292V13.827ZM25.2538 13.4203C25.2538 14.3844 25.232 14.7094 25.1659 14.7297C22.4159 15.5743 21.0087 16.3336 19.2928 17.8981L18.4979 18.6229L17.451 18.0119C16.8751 17.6758 16.3788 17.4013 16.3481 17.4018C16.3027 17.4026 14.081 21.2279 13.6432 22.059L13.5246 22.2842L14.5921 22.9096C15.1792 23.2536 15.671 23.5453 15.6851 23.5579C15.6991 23.5704 15.6291 23.9105 15.5296 24.3135C15.0075 26.4271 15.0163 28.6575 15.555 30.7947C15.6413 31.1374 15.7002 31.4284 15.6858 31.4414C15.6714 31.4543 15.1792 31.7464 14.5921 32.0904L13.5246 32.7158L13.6432 32.9418C14.0667 33.7487 16.3025 37.5976 16.3481 37.5983C16.3788 37.5988 16.8751 37.3242 17.451 36.9881L18.4979 36.3771L19.2928 37.1023C20.7444 38.4264 22.4805 39.4378 24.2346 39.981C24.6985 40.1248 25.1176 40.2546 25.1659 40.2698C25.2319 40.2904 25.2538 40.6158 25.2538 41.5797V42.8621H30.8768V41.5797C30.8768 40.6145 30.8985 40.2911 30.9646 40.2721C33.4358 39.566 35.1506 38.6402 36.8387 37.101L37.6346 36.3754L38.686 36.9872C39.2643 37.3238 39.7602 37.5988 39.788 37.5983C39.8287 37.5976 41.2495 35.1459 42.3849 33.117L42.6121 32.7111L41.5415 32.0878C40.9527 31.7449 40.4589 31.4537 40.4441 31.4405C40.4293 31.4274 40.4979 31.0874 40.5966 30.6851C40.8913 29.4828 40.9586 28.8902 40.9586 27.5C40.9586 26.1105 40.8911 25.5122 40.5987 24.3135C40.5003 23.9105 40.4314 23.5706 40.4454 23.5581C40.4595 23.5458 40.9521 23.2554 41.5401 22.9131L42.6092 22.2906L42.489 22.0615C42.0942 21.3092 39.8297 17.4024 39.788 17.4017C39.7602 17.4012 39.2627 17.6772 38.6824 18.0149L37.6272 18.6289L37.1704 18.1966C35.316 16.4413 33.5957 15.4797 30.9646 14.7279C30.8985 14.7089 30.8768 14.3855 30.8768 13.4203V12.1379H25.2538V13.4203ZM26.8352 17.9034C22.7403 18.469 19.4809 21.5843 18.6685 25.709C18.5827 26.1443 18.5468 26.6728 18.5468 27.5C18.5468 28.3272 18.5827 28.8557 18.6685 29.291C19.4412 33.2142 22.418 36.2263 26.2953 37.0082C27.1358 37.1777 28.9947 37.1777 29.8352 37.0082C33.7142 36.226 36.689 33.2159 37.462 29.291C37.6351 28.4121 37.6312 26.5517 37.4544 25.6864C37.299 24.9265 36.9243 23.8027 36.6258 23.2019C35.2951 20.5233 32.796 18.5952 29.8883 18.0037C29.234 17.8706 27.4879 17.8132 26.8352 17.9034ZM26.6902 19.0764C23.2616 19.6596 20.54 22.3125 19.7994 25.7931C19.6388 26.5477 19.6194 28.2935 19.7634 29.0291C20.2124 31.3229 21.5558 33.3695 23.4263 34.6094L24.094 35.052L24.1319 31.8967L23.6025 31.3273C20.9518 28.4762 21.4394 24.029 24.6452 21.8161C24.9372 21.6145 26.236 20.9569 26.3421 20.9569C26.3621 20.9569 26.3784 22.3489 26.3784 24.0501V27.1433L28.0653 27.9989L29.7522 27.1433V24.0501C29.7522 22.3489 29.7685 20.9569 29.7884 20.9569C29.8943 20.9569 31.1932 21.6144 31.4853 21.8158C32.7214 22.6681 33.5664 23.8437 34.0122 25.3308C34.1834 25.9021 34.2039 26.0817 34.2034 27.0022C34.2028 27.8243 34.1731 28.1429 34.0566 28.5734C33.7601 29.6695 33.2753 30.5312 32.4744 31.3857L31.9986 31.8933L32.0365 35.052L32.7042 34.6094C34.5747 33.3695 35.9181 31.3229 36.3671 29.0291C36.5111 28.2935 36.4917 26.5477 36.3311 25.7931C35.4749 21.7695 32.0106 18.9352 27.995 18.9731C27.5891 18.9769 27.002 19.0233 26.6902 19.0764ZM24.8321 23.1C24.0631 23.7341 23.444 24.7105 23.1698 25.722C22.9772 26.4321 22.9947 27.7325 23.206 28.4246C23.4928 29.3636 23.8109 29.885 24.566 30.6541L25.2538 31.3544V35.5194L25.4471 35.5982C25.5533 35.6415 25.925 35.7483 26.2729 35.8354C26.8072 35.9692 27.0912 35.9932 28.1004 35.9894C29.1866 35.9854 29.3656 35.9662 30.0684 35.7786L30.8416 35.5722L30.8789 31.3523L31.5656 30.653C32.3196 29.885 32.6378 29.3633 32.9245 28.4246C33.1359 27.7325 33.1533 26.4321 32.9608 25.722C32.6865 24.7105 32.0674 23.7341 31.2985 23.1L30.9119 22.7814L30.875 27.8558L28.0653 29.2787L25.2555 27.8558L25.2186 22.7814L24.8321 23.1Z" fill="url(#paint0_linear_3132_3814)"/>
<defs>
<linearGradient id="paint0_linear_3132_3814" x1="12" y1="11" x2="45.6524" y2="43.9275" gradientUnits="userSpaceOnUse">
<stop stop-color="#0ABD92"/>
<stop offset="1" stop-color="#009DB8"/>
</linearGradient>
</defs>
</svg>

<svg width="57" height="57" fill="none" xmlns="http://www.w3.org/2000/svg"><circle cx="28.5" cy="28.5" r="28" stroke="#009CA1"/><path fill-rule="evenodd" clip-rule="evenodd" d="M24.13 13.827l-.651.227c-1.54.537-3.328 1.574-4.532 2.627-.318.279-.597.506-.62.506-.023 0-.565-.307-1.205-.682-.962-.565-1.178-.666-1.251-.587-.062.067-3.52 6.098-3.87 6.748-.012.021.502.341 1.141.712.64.37 1.177.71 1.195.755.018.046-.035.478-.117.96a14.805 14.805 0 00.045 5.088c.062.32.096.625.076.676-.02.05-.56.396-1.198.767-.639.371-1.152.691-1.142.711.35.652 3.808 6.68 3.87 6.747.074.08.285-.018 1.254-.586.64-.376 1.181-.684 1.203-.684.022 0 .3.228.619.507 1.204 1.053 2.992 2.09 4.532 2.627l.65.227V44h7.872v-2.827l.65-.226c1.473-.51 3.288-1.558 4.473-2.58.285-.246.558-.477.606-.513.059-.044.464.157 1.264.628.798.47 1.2.67 1.249.621.04-.04.935-1.587 1.991-3.437 1.884-3.302 1.917-3.367 1.765-3.458a465.16 465.16 0 00-1.209-.717c-.6-.355-1.045-.663-1.034-.715.242-1.092.319-1.855.325-3.205.006-1.235-.02-1.61-.162-2.447-.148-.872-.155-.999-.062-1.067.057-.043.598-.363 1.2-.713.603-.35 1.086-.654 1.074-.676-.38-.703-3.81-6.683-3.87-6.748-.071-.078-.297.029-1.252.586-.64.375-1.183.681-1.206.681-.022 0-.301-.227-.62-.506-1.204-1.053-2.991-2.09-4.532-2.627l-.65-.227V11H24.13v2.827zm1.124-.407c0 .964-.022 1.29-.088 1.31-2.75.844-4.157 1.604-5.873 3.168l-.795.725-1.047-.611c-.576-.336-1.072-.61-1.103-.61-.045 0-2.267 3.826-2.705 4.657l-.118.225 1.067.626a60.87 60.87 0 011.093.648c.014.012-.056.352-.155.756a13.4 13.4 0 00.025 6.48c.086.343.145.634.13.647a60.68 60.68 0 01-1.093.65l-1.067.625.118.226c.424.807 2.66 4.656 2.705 4.656.03 0 .527-.274 1.103-.61l1.047-.61.795.724c1.451 1.324 3.188 2.336 4.942 2.879l.93.289c.067.02.089.346.089 1.31v1.282h5.623V41.58c0-.965.021-1.289.088-1.308 2.47-.706 4.186-1.632 5.874-3.171l.796-.726 1.051.612c.578.337 1.074.612 1.102.611.04 0 1.462-2.452 2.597-4.481l.227-.406-1.07-.623a60.052 60.052 0 01-1.098-.648c-.015-.013.054-.353.153-.755.294-1.202.362-1.795.362-3.185 0-1.39-.068-1.988-.36-3.186-.099-.404-.168-.743-.154-.756a64.99 64.99 0 011.095-.645l1.07-.622-.121-.23c-.395-.752-2.66-4.659-2.701-4.66-.028 0-.525.276-1.106.614l-1.055.614-.457-.432c-1.854-1.756-3.574-2.717-6.205-3.47-.067-.018-.088-.341-.088-1.307v-1.282h-5.623v1.282zm1.581 4.483c-4.095.566-7.354 3.681-8.166 7.806-.086.435-.122.964-.122 1.791s.036 1.356.122 1.791c.772 3.923 3.749 6.935 7.626 7.717.84.17 2.7.17 3.54 0 3.88-.782 6.854-3.792 7.627-7.717.173-.879.17-2.74-.008-3.605-.155-.76-.53-1.883-.828-2.484a9.718 9.718 0 00-6.738-5.198c-.654-.133-2.4-.19-3.053-.1zm-.145 1.173c-3.428.584-6.15 3.236-6.89 6.717-.161.755-.18 2.5-.037 3.236.45 2.294 1.793 4.34 3.663 5.58l.668.443.038-3.155-.53-.57a6.285 6.285 0 011.043-9.51c.292-.203 1.591-.86 1.697-.86.02 0 .036 1.392.036 3.093v3.093l1.687.856 1.687-.856V24.05c0-1.701.017-3.093.036-3.093.106 0 1.405.657 1.697.859 1.236.852 2.081 2.028 2.527 3.515.171.571.192.75.191 1.671 0 .822-.03 1.14-.146 1.571-.297 1.096-.782 1.958-1.583 2.813l-.475.507.037 3.159.668-.443c1.87-1.24 3.214-3.286 3.663-5.58.144-.735.125-2.481-.036-3.236-.856-4.023-4.32-6.858-8.336-6.82-.406.004-.993.05-1.305.103zM24.832 23.1c-.769.634-1.388 1.61-1.662 2.622-.193.71-.175 2.01.036 2.703.287.939.605 1.46 1.36 2.23l.688.7v4.164l.193.08c.106.043.478.15.826.236.534.134.818.158 1.827.154 1.087-.004 1.266-.023 1.968-.21l.774-.207.037-4.22.687-.699c.754-.768 1.072-1.29 1.359-2.228.21-.692.228-1.993.036-2.703-.274-1.012-.894-1.988-1.662-2.622l-.387-.319-.037 5.075-2.81 1.423-2.81-1.423-.036-5.075-.387.319z" fill="url(#paint0_linear_3132_3814)"/><defs><linearGradient id="paint0_linear_3132_3814" x1="12" y1="11" x2="45.652" y2="43.928" gradientUnits="userSpaceOnUse"><stop stop-color="#0ABD92"/><stop offset="1" stop-color="#009DB8"/></linearGradient></defs></svg>
